packages/match-logos/mono/svg/bar-analytics.svg

<svg fill="none" height="36" viewBox="0 0 50 36" width="50" xmlns="http://www.w3.org/2000/svg" xmlns:xlink="http://www.w3.org/1999/xlink"><clipPath id="a"><path d="m0 0h50v36h-50z"/></clipPath><g clip-path="url(#a)" clip-rule="evenodd" fill="#1f304c" fill-rule="evenodd"><path d="m.896828 22.3306c1.234202.0911 2.779922.0092 4.048442.0105 2.40504.004 4.6794.0225 7.07653-.0448 1.2738-.037 2.768-.6627 3.7963-1.3742 1.852-1.2817 2.6492-3.3699 2.5648-5.6152-.107-2.8737-1.0785-3.8769-3.135-5.0992.194-.231 1.0375-.67848 1.7146-1.87572.5109-.9042.6165-2.00376.4238-3.02016-.3723-1.95888-1.3214-3.28944-2.9436-4.34016-1.8507-1.19592-4.1739-.9503999-6.27003-.9503999l-7.277162.0066zm4.527602-17.98502c.80388-.00132 4.29264-.05016 4.79947.00924.5003.06072 1.2831.0924 1.7583.63756.4382.50424.7352.9768.7379 1.67772.0026 1.47312-1.0917 2.34696-2.5186 2.35092-.96227.00264-4.05371.0462-4.77839-.00924zm0 8.16952c1.7292-.004 3.6432-.0344 5.35127-.008.7788.0119 1.3688.3076 1.8242.8699.9953 1.2263 1.0613 2.6836-.0343 3.7739-.5993.5966-.9702.7616-1.844.8078-.5901.0304-4.75993.0383-5.29849.0014z"/><path d="m21.7073 8.05624c.2469.46992 1.8097 2.92116 2.0341 3.28156.5148-.231 7.5029-4.1422 7.1954.726-1.9906.1333-5.0147.4052-6.6964 1.2592-.8712.3987-1.5906 1.0851-2.0315 1.9233-.4343.8263-.8883 2.3007-.5544 3.6181.3762 1.7094 1.6447 2.9251 3.7369 3.5693 2.9991.9227 5.1111-.0145 6.2727-1.2144 1.4441 1.4639 1.9272 1.4652 3.9204 1.5787.3801-1.0441 1.0137-2.2453 1.4599-3.3198-1.5008-.3538-1.6447-1.0098-1.654-1.3688-.2032-3.6617.2297-6.6476-.2745-8.69884-.231-.93984-.7089-1.7754-1.4441-2.22684-2.9119-2.01168-7.3339-1.77672-10.3066-.04488-.491.28644-1.0956.58608-1.6579.9174zm9.2229 7.27976c.0343.6917.0066 1.4586.0066 2.1582-.0212 1.8414-2.8565 2.1371-4.1448 1.1656-.8184-.6151-.9518-2.0882.1267-2.5027 1.1735-.4528 2.57-.7234 4.0115-.8211z"/><path d="m14.8972 28.0979c.0884.169.6508 1.0508.7313 1.1801.1848-.0831 2.6994-1.4903 2.5885.2614-.7154.0475-1.8044.1452-2.409.4527-.3142.1426-.5716.3894-.73.6917-.1557.2983-.3194.8277-.2006 1.3015.136.6152.5927 1.0521 1.3451 1.2844 1.0784.3313 1.8374-.0053 2.2559-.4369.5187.5267.693.5267 1.4097.5676.1373-.3762.3657-.8079.5267-1.1933-.5399-.128-.5927-.3643-.5953-.4924-.0739-1.3186.0818-2.3918-.099-3.1297-.0832-.3379-.2548-.6389-.5188-.8012-1.0481-.7234-2.6387-.6389-3.7092-.0159-.1769.103-.3933.2099-.5953.33zm3.3172 2.6176c.0118.2495.0026.5254.0026.7775-.0026.2033-.1228.4158-.3485.5029-.3155.1373-.7445.2165-1.1431-.0832-.1808-.1359-.2746-.322-.2204-.5689.0145-.1465.066-.2534.2296-.3181.3551-.1399.9676-.2746 1.4798-.3102z"/><path d="m44.3085 7.92991-.0093-1.45596-4.3639-.00132v15.81627l4.3705-.0317c0-2.7601-.128-5.7314.0053-8.4599.2152-3.3132 3.6683-3.6537 5.0411-3.428l-.0159-4.2095c-1.7833-.0066-2.4974-.04884-4.055.99263-.2719.18084-.7946.6996-.9728.77748z"/><path d="m-.00048828 33.2438h1.76879828l.4356-1.4308 2.98056.0118.42108 1.4177 1.7886.0013c-.90948-2.6769-1.72128-5.3526-2.65584-8.011h-2.13972c-.21384.8368-.99528 3.0663-1.31472 3.9969-.1848.532-1.2605983 3.7119-1.28435828 4.0141zm3.68147828-6.229 1.06788 3.3739h-2.12388z"/><path d="m45.4751 31.2967c-.3683.396-.9082.9055-1.0481 1.0573.6244.5346 1.2408 1.0217 2.3694 1.0441 3.0928.0647 3.0347-2.6254 1.8678-3.3462-.8316-.6124-2.5014-.2006-2.2783-1.0269.0356-.1281.2534-.4317.7075-.4105.6296.029 1.093.3867 1.3609.6151l.9465-1.089c-.3327-.1439-.5518-.4013-.9993-.5676-1.1167-.4171-2.8934-.3934-3.461.8831-.3762.8461-.1083 1.7806.6626 2.2281.8501.4171 2.2717.2653 2.2348.9663-.0291.5293-1.3121.6916-2.3628-.3538z"/><path d="m24.9764 33.5687-.1875 1.3833c.8277.103 1.9919.4066 2.5978-.326.2416-.2904 2.306-6.2397 2.6083-7.0937l-1.6064.0013-1.2369 3.3343-1.1668-3.3382-1.6065.029c.6508 1.7437 1.2052 3.4584 1.852 5.1704.4092 1.0811-.5967.891-1.254.8396z"/><path d="m10.0129 27.8297-.04884-.3247-1.5642.0106-.00264 5.6984 1.58928-.0053c.00132-.8857-.00132-1.98-.00132-2.8657 0-.3445-.02508-.8554.17692-1.0837.5095-.6165 1.3873-.5821 1.7463 0 .1927.3075.1281.8712.1254 1.2395v2.7178l1.588-.0158c0-.8435-.004-2.4116.0013-3.5851.0013-.4449-.1558-.8224-.2732-1.0679-.3644-.7616-1.5933-1.3913-2.5199-1.1167-.3617.1069-.5491.3023-.8171.3986z"/><path d="m43.9758 31.5706-1.4744-.5082c-.6983 1.7266-2.343.9517-2.2849-.7194-.0317-1.7648 1.679-2.2862 2.2862-.6798l1.4639-.5174c-.8395-2.6691-5.2061-2.607-5.3302 1.1444-.1214 3.6762 4.4009 4.1725 5.3394 1.2804z"/><path d="m31.5081 25.7189-.0053 1.745-.9134.004v1.3121l.9187.0237c.0013 1.1788-.0093 2.4156.0053 3.1733.0171.9385.4567 1.3649 1.4757 1.4071.5161.0225 1.3174-.033 1.7701-.297l-.3682-1.2263c-.8303.2522-1.2884.1479-1.3002-.3907l.0092-2.6862 1.4441-.0092v-1.3042l-1.4415-.0079-.0264-2.207c-.6204.1782-.8434.2283-1.5681.4633z"/><path d="m24.0548 33.164-.1386-1.3557c-.1756.037-.9293.1294-.9293-.2679l-.0079-6.2832-1.5708.0092c-.0278 2.0896-.0014 4.2161-.0066 6.303-.0027.2733-.0779 1.056.4197 1.4599.499.4792 1.6276.3182 2.2335.1347z"/><path d="m36.6668 25.1924c.4924 0 .8937.3999.8937.8936s-.4013.8936-.8937.8936c-.4936 0-.8936-.3999-.8936-.8936s.4-.8936.8936-.8936z"/><path d="m35.8894 33.2495h1.588v-5.7063h-1.588z"/></g></svg>

<svg width="50" height="36" viewBox="0 0 50 36" fill="none" xmlns="http://www.w3.org/2000/svg">
<mask id="mask0" mask-type="alpha" maskUnits="userSpaceOnUse" x="0" y="0" width="8" height="9">
<path fill-rule="evenodd" clip-rule="evenodd" d="M0 0.689972H7.39411V8.70105H0V0.689972Z" fill="white"/>
</mask>
<g mask="url(#mask0)">
</g>
<mask id="mask1" mask-type="alpha" maskUnits="userSpaceOnUse" x="0" y="0" width="6" height="7">
<path fill-rule="evenodd" clip-rule="evenodd" d="M0.866943 0.148926H5.84229V6.21646H0.866943V0.148926Z" fill="white"/>
</mask>
<g mask="url(#mask1)">
</g>
<mask id="mask2" mask-type="alpha" maskUnits="userSpaceOnUse" x="0" y="0" width="50" height="36">
<path fill-rule="evenodd" clip-rule="evenodd" d="M0 35.1028H49.4023V0H0V35.1028Z" fill="white"/>
</mask>
<g mask="url(#mask2)">
<path fill-rule="evenodd" clip-rule="evenodd" d="M0.896828 22.3306C2.13103 22.4217 3.67675 22.3398 4.94527 22.3411C7.35031 22.3451 9.62467 22.3636 12.0218 22.2963C13.2956 22.2593 14.7898 21.6336 15.8181 20.9221C17.6701 19.6404 18.4673 17.5522 18.3829 15.3069C18.2759 12.4332 17.3044 11.43 15.2479 10.2077C15.4419 9.9767 16.2854 9.52922 16.9625 8.33198C17.4734 7.42778 17.579 6.32822 17.3863 5.31182C17.014 3.35294 16.0649 2.02238 14.4427 0.97166C12.592 -0.22426 10.2688 0.0212601 8.17267 0.0212601L0.895508 0.0278601L0.896828 22.3306ZM5.42443 4.34558C6.22831 4.34426 9.71707 4.29542 10.2239 4.35482C10.7242 4.41554 11.507 4.44722 11.9822 4.99238C12.4204 5.49662 12.7174 5.96918 12.7201 6.6701C12.7227 8.14322 11.6284 9.01706 10.2015 9.02102C9.23923 9.02366 6.14779 9.06722 5.42311 9.01178L5.42443 4.34558ZM5.42443 12.5151C7.15363 12.5111 9.06763 12.4807 10.7757 12.5071C11.5545 12.519 12.1445 12.8147 12.5999 13.377C13.5952 14.6033 13.6612 16.0606 12.5656 17.1509C11.9663 17.7475 11.5954 17.9125 10.7216 17.9587C10.1315 17.9891 5.96167 17.997 5.42311 17.9601L5.42443 12.5151Z" fill="#1F304C"/>
<path fill-rule="evenodd" clip-rule="evenodd" d="M21.7073 8.05624C21.9542 8.52616 23.517 10.9774 23.7414 11.3378C24.2562 11.1068 31.2443 7.1956 30.9368 12.0638C28.9462 12.1971 25.9221 12.469 24.2404 13.323C23.3692 13.7217 22.6498 14.4081 22.2089 15.2463C21.7746 16.0726 21.3206 17.547 21.6545 18.8644C22.0307 20.5738 23.2992 21.7895 25.3914 22.4337C28.3905 23.3564 30.5025 22.4192 31.6641 21.2193C33.1082 22.6832 33.5913 22.6845 35.5845 22.798C35.9646 21.7539 36.5982 20.5527 37.0444 19.4782C35.5436 19.1244 35.3997 18.4684 35.3904 18.1094C35.1872 14.4477 35.6201 11.4618 35.1159 9.41056C34.8849 8.47072 34.407 7.63516 33.6718 7.18372C30.7599 5.17204 26.3379 5.407 23.3652 7.13884C22.8742 7.42528 22.2696 7.72492 21.7073 8.05624ZM30.9302 15.336C30.9645 16.0277 30.9368 16.7946 30.9368 17.4942C30.9156 19.3356 28.0803 19.6313 26.792 18.6598C25.9736 18.0447 25.8402 16.5716 26.9187 16.1571C28.0922 15.7043 29.4887 15.4337 30.9302 15.336Z" fill="#1F304C"/>
<path fill-rule="evenodd" clip-rule="evenodd" d="M14.8972 28.0979C14.9856 28.2669 15.548 29.1487 15.6285 29.278C15.8133 29.1949 18.3279 27.7877 18.217 29.5394C17.5016 29.5869 16.4126 29.6846 15.808 29.9921C15.4938 30.1347 15.2364 30.3815 15.078 30.6838C14.9223 30.9821 14.7586 31.5115 14.8774 31.9853C15.0134 32.6005 15.4701 33.0374 16.2225 33.2697C17.3009 33.601 18.0599 33.2644 18.4784 32.8328C18.9971 33.3595 19.1714 33.3595 19.8881 33.4004C20.0254 33.0242 20.2538 32.5925 20.4148 32.2071C19.8749 32.0791 19.8221 31.8428 19.8195 31.7147C19.7456 30.3961 19.9013 29.3229 19.7205 28.585C19.6373 28.2471 19.4657 27.9461 19.2017 27.7838C18.1536 27.0604 16.563 27.1449 15.4925 27.7679C15.3156 27.8709 15.0992 27.9778 14.8972 28.0979ZM18.2144 30.7155C18.2262 30.965 18.217 31.2409 18.217 31.493C18.2144 31.6963 18.0942 31.9088 17.8685 31.9959C17.553 32.1332 17.124 32.2124 16.7254 31.9127C16.5446 31.7768 16.4508 31.5907 16.505 31.3438C16.5195 31.1973 16.571 31.0904 16.7346 31.0257C17.0897 30.8858 17.7022 30.7511 18.2144 30.7155Z" fill="#1F304C"/>
<path fill-rule="evenodd" clip-rule="evenodd" d="M44.3085 7.92991L44.2992 6.47395L39.9353 6.47263V22.2889L44.3058 22.2572C44.3058 19.4971 44.1778 16.5258 44.3111 13.7973C44.5263 10.4841 47.9794 10.1436 49.3522 10.3693L49.3363 6.1598C47.553 6.1532 46.8389 6.11096 45.2813 7.15243C45.0094 7.33327 44.4867 7.85203 44.3085 7.92991Z" fill="#1F304C"/>
<path fill-rule="evenodd" clip-rule="evenodd" d="M-0.000488281 33.2438H1.76831L2.20391 31.813L5.18447 31.8248L5.60555 33.2425L7.39415 33.2438C6.48467 30.5669 5.67287 27.8912 4.73831 25.2328H2.59859C2.38475 26.0696 1.60331 28.2991 1.28387 29.2297C1.09907 29.7617 0.0232717 32.9416 -0.000488281 33.2438ZM3.68099 27.0148L4.74887 30.3887H2.62499L3.68099 27.0148Z" fill="#1F304C"/>
<path fill-rule="evenodd" clip-rule="evenodd" d="M45.4751 31.2967C45.1068 31.6927 44.5669 32.2022 44.427 32.354C45.0514 32.8886 45.6678 33.3757 46.7964 33.3981C49.8892 33.4628 49.8311 30.7727 48.6642 30.0519C47.8326 29.4395 46.1628 29.8513 46.3859 29.025C46.4215 28.8969 46.6393 28.5933 47.0934 28.6145C47.723 28.6435 48.1864 29.0012 48.4543 29.2296L49.4008 28.1406C49.0681 27.9967 48.849 27.7393 48.4015 27.573C47.2848 27.1559 45.5081 27.1796 44.9405 28.4561C44.5643 29.3022 44.8322 30.2367 45.6031 30.6842C46.4532 31.1013 47.8748 30.9495 47.8379 31.6505C47.8088 32.1798 46.5258 32.3421 45.4751 31.2967Z" fill="#1F304C"/>
<path fill-rule="evenodd" clip-rule="evenodd" d="M24.9764 33.5687L24.7889 34.952C25.6166 35.055 26.7808 35.3586 27.3867 34.626C27.6283 34.3356 29.6927 28.3863 29.995 27.5323L28.3886 27.5336L27.1517 30.8679L25.9849 27.5297L24.3784 27.5587C25.0292 29.3024 25.5836 31.0171 26.2304 32.7291C26.6396 33.8102 25.6337 33.6201 24.9764 33.5687Z" fill="#1F304C"/>
<path fill-rule="evenodd" clip-rule="evenodd" d="M10.0129 27.8297L9.96406 27.505L8.39986 27.5156L8.39722 33.214L9.9865 33.2087C9.98782 32.323 9.98518 31.2287 9.98518 30.343C9.98518 29.9985 9.9601 29.4876 10.1621 29.2593C10.6716 28.6428 11.5494 28.6772 11.9084 29.2593C12.1011 29.5668 12.0365 30.1305 12.0338 30.4988V33.2166L13.6218 33.2008C13.6218 32.3573 13.6178 30.7892 13.6231 29.6157C13.6244 29.1708 13.4673 28.7933 13.3499 28.5478C12.9855 27.7862 11.7566 27.1565 10.83 27.4311C10.4683 27.538 10.2809 27.7334 10.0129 27.8297Z" fill="#1F304C"/>
<path fill-rule="evenodd" clip-rule="evenodd" d="M43.9758 31.5706L42.5014 31.0624C41.8031 32.789 40.1584 32.0141 40.2165 30.343C40.1848 28.5782 41.8955 28.0568 42.5027 29.6632L43.9666 29.1458C43.1271 26.4767 38.7605 26.5388 38.6364 30.2902C38.515 33.9664 43.0373 34.4627 43.9758 31.5706Z" fill="#1F304C"/>
<path fill-rule="evenodd" clip-rule="evenodd" d="M31.5081 25.7189L31.5028 27.4639L30.5894 27.4679V28.78L31.5081 28.8037C31.5094 29.9825 31.4988 31.2193 31.5134 31.977C31.5305 32.9155 31.9701 33.3419 32.9891 33.3841C33.5052 33.4066 34.3065 33.3511 34.7592 33.0871L34.391 31.8608C33.5607 32.113 33.1026 32.0087 33.0908 31.4701L33.1 28.7839L34.5441 28.7747V27.4705L33.1026 27.4626L33.0762 25.2556C32.4558 25.4338 32.2328 25.4839 31.5081 25.7189Z" fill="#1F304C"/>
<path fill-rule="evenodd" clip-rule="evenodd" d="M24.0548 33.164L23.9162 31.8083C23.7406 31.8453 22.9869 31.9377 22.9869 31.5404L22.979 25.2572L21.4082 25.2664C21.3804 27.356 21.4068 29.4825 21.4016 31.5694C21.3989 31.8427 21.3237 32.6254 21.8213 33.0293C22.3203 33.5085 23.4489 33.3475 24.0548 33.164Z" fill="#1F304C"/>
<path fill-rule="evenodd" clip-rule="evenodd" d="M36.6668 25.1924C37.1592 25.1924 37.5605 25.5923 37.5605 26.086C37.5605 26.5797 37.1592 26.9796 36.6668 26.9796C36.1732 26.9796 35.7732 26.5797 35.7732 26.086C35.7732 25.5923 36.1732 25.1924 36.6668 25.1924Z" fill="#1F304C"/>
<path fill-rule="evenodd" clip-rule="evenodd" d="M35.8894 33.2495H37.4774V27.5432H35.8894V33.2495Z" fill="#1F304C"/>
</g>
</svg>
